src/actions/16/password-copy.svg

<svg xmlns="http://www.w3.org/2000/svg" viewBox="0 0 16 16">
    <defs>
        <style id="current-color-scheme" type="text/css">
            .ColorScheme-Text{color:#050505;opacity:.7}
        </style>
    </defs>
    <path d="M9 5h1v3h3v5H7v-1H6v2h8V7l-3-3H9v1Z" class="ColorScheme-Text" style="fill:currentColor;fill-opacity:1;stroke:none"/>
    <path d="M5.5 2A2.5 2.5 0 0 0 3 4.5V6H2v5h7V6H8V4.5A2.5 2.5 0 0 0 5.5 2Zm0 1A1.5 1.5 0 0 1 7 4.5V6H4V4.5A1.5 1.5 0 0 1 5.5 3ZM3 7h5v3H3V7Z" class="ColorScheme-Text" style="fill:currentColor;fill-opacity:1;stroke:none"/>
</svg>

<!DOCTYPE svg>
<svg viewBox="0 0 16 16" version="1.1" xmlns="http://www.w3.org/2000/svg">
    <defs>
        <style type="text/css" id="current-color-scheme">
            .ColorScheme-Text {
                color:#363636;
            }
        </style>
    </defs>
    <path class="ColorScheme-Text" style="fill:currentColor; fill-opacity:1; stroke:none" d="M 9 5 L 10 5 L 10 8 L 13 8 L 13 13 L 7 13 L 7 12 L 6 12 L 6 14 L 14 14 L 14 7 L 11 4 L 9 4 L 9 5 Z"/>
    <path class="ColorScheme-Text" style="fill:currentColor; fill-opacity:1; stroke:none" d="M 5.5 2 C 4.11929 2 3 3.11929 3 4.5 L 3 6 L 2 6 L 2 11 L 9 11 L 9 6 L 8 6 L 8 4.5 C 8 3.11929 6.88071 2 5.5 2 Z M 5.5 3 C 6.32843 3 7 3.67157 7 4.5 L 7 6 L 4 6 L 4 4.5 C 4 3.67157 4.67157 3 5.5 3 Z M 3 7 L 4 7 L 7 7 L 8 7 L 8 10 L 3 10 L 3 7 Z"/>
</svg>
